icons/dribbble.svg

<svg width="24" height="24" viewBox="0 0 24 24" fill="none" xmlns="http://www.w3.org/2000/svg">
<path d="M19.989 11.572C19.907 9.99791 19.3596 8.4836 18.416 7.221C18.1285 7.53063 17.8212 7.82124 17.496 8.091C16.4969 8.92085 15.3805 9.59819 14.183 10.101C14.35 10.451 14.503 10.79 14.638 11.11V11.113C14.6761 11.2024 14.7128 11.2924 14.748 11.383C16.262 11.213 17.858 11.275 19.405 11.484C19.611 11.512 19.805 11.542 19.989 11.572V11.572ZM10.604 4.122C11.5785 5.49517 12.4772 6.92064 13.296 8.392C14.519 7.91 15.53 7.302 16.344 6.625C16.6266 6.39213 16.8925 6.13985 17.14 5.87C15.701 4.65972 13.8803 3.99733 12 4C11.532 3.99968 11.0649 4.04017 10.604 4.121V4.122ZM4.253 9.997C4.93423 9.97981 5.61464 9.93878 6.293 9.874C7.93264 9.72734 9.55828 9.4525 11.155 9.052C10.3205 7.60221 9.41955 6.19171 8.455 4.825C7.42472 5.3354 6.51626 6.06141 5.79124 6.95379C5.06623 7.84617 4.54162 8.88404 4.253 9.997ZM5.783 17.035C6.171 16.468 6.681 15.83 7.358 15.136C8.812 13.646 10.528 12.486 12.514 11.846L12.576 11.828C12.411 11.464 12.256 11.139 12.1 10.833C10.264 11.368 8.33 11.702 6.403 11.875C5.463 11.96 4.62 11.997 4 12.003C3.99823 13.8356 4.62829 15.6128 5.784 17.035H5.783ZM15.005 19.415C14.6194 17.4703 14.0735 15.5607 13.373 13.706C11.371 14.433 9.776 15.496 8.543 16.764C8.0454 17.2664 7.60382 17.8213 7.226 18.419C8.60481 19.4478 10.2797 20.0025 12 20C13.0299 20.0015 14.0504 19.8035 15.005 19.417V19.415ZM16.878 18.34C18.4393 17.1398 19.5028 15.4057 19.865 13.47C19.525 13.385 19.094 13.3 18.62 13.234C17.5661 13.0822 16.4968 13.0711 15.44 13.201C16.0351 14.8798 16.5155 16.5971 16.878 18.341V18.34ZM12 22C6.477 22 2 17.523 2 12C2 6.477 6.477 2 12 2C17.523 2 22 6.477 22 12C22 17.523 17.523 22 12 22Z" fill="black"/>
</svg>

<svg
  width="24"
  height="24"
  viewBox="0 0 24 24"
  xmlns="http://www.w3.org/2000/svg"
>
  <path d="M19.989 11.572a7.96 7.96 0 0 0-1.573-4.351c-.288.31-.595.6-.92.87-1 .83-2.115 1.507-3.313 2.01.167.35.32.689.455 1.009v.003c.038.09.075.18.11.27 1.514-.17 3.11-.108 4.657.101.206.028.4.058.584.088zm-9.385-7.45a46.175 46.175 0 0 1 2.692 4.27c1.223-.482 2.234-1.09 3.048-1.767.283-.233.548-.485.796-.755A7.968 7.968 0 0 0 12 4c-.468 0-.935.04-1.396.121v.001zM4.253 9.997a29.21 29.21 0 0 0 2.04-.123 31.53 31.53 0 0 0 4.862-.822 54.369 54.369 0 0 0-2.7-4.227 8.018 8.018 0 0 0-4.202 5.172zm1.53 7.038c.388-.567.898-1.205 1.575-1.899 1.454-1.49 3.17-2.65 5.156-3.29l.062-.018c-.165-.364-.32-.689-.476-.995-1.836.535-3.77.869-5.697 1.042-.94.085-1.783.122-2.403.128a7.967 7.967 0 0 0 1.784 5.032h-.001zm9.222 2.38a35.945 35.945 0 0 0-1.632-5.709c-2.002.727-3.597 1.79-4.83 3.058a9.77 9.77 0 0 0-1.317 1.655A7.964 7.964 0 0 0 12 20a7.976 7.976 0 0 0 3.005-.583v-.002zm1.873-1.075a7.998 7.998 0 0 0 2.987-4.87c-.34-.085-.771-.17-1.245-.236a12.02 12.02 0 0 0-3.18-.033 39.36 39.36 0 0 1 1.438 5.14v-.001zM12 22C6.477 22 2 17.523 2 12S6.477 2 12 2s10 4.477 10 10-4.477 10-10 10z" />
</svg>
